X: 26245
T: Meet Me On The Dance Floor
R: jig
M: 6/8
K: Eminor
|:DED EGF|E F2 E D2|DEE EGF|E A2 G F2|
DED EGF|E F2 E D2|1 DAG FGF|DEE E E2:|
[2 DBA GAG|FEE E E2||
EGE EAE|B,DD GDB,|GEE AEB|AGF EDB,|
GEE GEE|AGD DAD|1 BEE GEE|ABA FGF:|
[2 BAB GAF|EFD F E2||

